X:1
T:The Lean and Unwashed Tiffy
M:4/4
L:1/8
K:D
 FF| BA FE D/2 B,3/2 B,B,| FF A/2 F3/2 A4-|
M:2/4
 A4|
M:4/4
 z4 z2 FA| BA FE D/2 B,3/2 B,B,| FF D/2 C3/2 B,2 B,B,| B8-| B4- BF E/2 F3/2|\
 B,6|
